X:72
T:score161
L:1/8
Q:1/4=96
M:2/2
I:linebreak $
K:Eb
 z!p! (C =B,C).F.F | E2 z (C =B,C).A.A | G2 z (C =B,C).c.c |$ (c2 !turn!ed fedc | %4
 =B2) z (G, ^F,G,).C.C | =B,2 z (G, ^F,G,).E.E |$ D2 z G, .=B,.D.F.A | .=B.d.f.a .g.f.e.d | %8
 c2 z2 z4 |] %9
